!!!!SEGMENT: pl-kozmzk--mzk-m-346--050_walczynski-franciszek-cantantibus-organis-allegretto.krn
!!!id: 18xx:2845
!!!COM: Walczyński, Franciszek
!!!OTL: Cantantibus organis – Allegretto
!!!PDT: 1898
!!!SMS-siglum: PL-KOZmzk
!!!SMS-shelfmark: mzk/m/346
!!!NIFC-rismID: 1001109652
!!!URL-scan: https://repozytorium.nifc.pl/islandora/object/pl-kozmzk%3A7453/datastream/PDF/view
!!!ONB-nifc:
!!!SMS-variant:
!!!SMS-altvar:
!!!OMD:Allegretto.
**kern	**kern	**dynam
*part2	*part1	*part1
*staff2	*staff1	*
*I"[Organo]	*	*
*I'org	*I'org	*
*clefF4	*clefG2	*
*k[b-e-a-]	*k[b-e-a-]	*
*M3/4	*M3/4	*
=1	=1	=1
!	!	!
(8C\L	2.r	p <
8D\	.	.
8E-\	.	.
8G\	.	.
8A-\	.	.
8G\J	.	[
=2	=2	=2
!	!	!
8e-\L	2.r	>
8d\	.	.
8c\	.	.
8A-\	.	.
8G\	.	.
8F\J)	.	]
=3	=3	=3
(8E-\L	(8c/L	p <
8D\J	8d/	.
4C/	8e-/	.
.	8g/	.
4BBn/	8a-/	.
.	8g/J	[
=4	=4	=4
8C\L	8ee-\L	>
8D\	8dd\	.
8E-\	8cc\	.
8F\	8a-\	.
8G\	8g\	.
16An\L	8f\J	.
16Bn\JJ)	.	]
=5	=5	=5
(8c\L	8e-/L	.
8B-X\	8en/	.
8A-\	8f/	.
8G\	8e-X/	.
8F\	8d/	.
8E-\J	8c/J	.
=6	=6	=6
8D\L	2.Bn/)	.
8A-\	.	.
8G\	.	.
8F\	.	.
8E-\	.	.
8D\J	.	.
!!LO:LB:g=original
=7	=7	=7
8C/)	(8c/L	f <
8r	8d/	.
4r	8e-/	.
.	8g/	.
4r	8a-/	.
.	8g/J	[
=8	=8	=8
(8C\L	8ee-\L	f >
8D\	8dd\	.
8E-\	8cc\	.
8F\	8a-\	.
8G\	8g\	.
8A-\J	8f\J)	]
=9	=9	=9
4G\	(8e-/L	p
.	8d/	.
4GG/	8c/	.
.	8e-/	.
4F\)	8d/	.
.	8Bn/J	.
=10	=10	=10
(8E-/L	2c/	<
8D/	.	.
8C/	.	.
8E-/	.	.
8D/	4Bn/	.
8GG/J)	.	[
=11	=11	=11
(8AA-/L	2.c/)	>
8GG/	.	.
8FF/	.	.
8AA-/	.	.
8GG/	.	]
8FF/J	.	.
=12	=12	=12
*^	*	*
(8B-/L	2EEn\	[2.c/	pp < [[
8A-/	.	.	.
8G/	.	.	.
8B-/	.	.	.
8A-/	8FF\L	.	.
8F/J	8AA-\J)	.	[[
=13	=13	=13	=13
4G/ 4En/	[2.C\ [2.CC\	2.c/_	>
!LO:TX:b:i:t=rall.	!	!	!
4A-/ 4F/	.	.	.
4F/ 4D/	.	.	.
=14	=14	=14	=14
2.G/ 2.En;/)	2.C\] 2.CC;\]	2.c;/]	]]
*v	*v	*	*
==	==	==
*-	*-	*-
!!!system-decoration: {(s1,s2)}
!!!ENC:Anastazja Marusiak
!!!END:2021-07-28
!!!EED: Andrzej Borzym
!!!EST: 2021-08-09
